static/pic/head-vol-stroked.svg

<?xml version="1.0" encoding="UTF-8"?>
<svg width="40px" height="40px" viewBox="0 0 40 40" version="1.1" xmlns="http://www.w3.org/2000/svg" xmlns:xlink="http://www.w3.org/1999/xlink">
    <!-- Generator: Sketch 39.1 (31720) - http://www.bohemiancoding.com/sketch -->
    <title>vol</title>
    <desc>Created with Sketch.</desc>
    <defs></defs>
    <g id="Page-1" stroke="none" stroke-width="1" fill="none" fill-rule="evenodd">
        <g id="track" transform="translate(-74.000000, -38.000000)" fill="#FFFFFF">
            <g id="head" transform="translate(70.000000, 38.000000)">
                <g id="vol">
                    <path d="M23.999184,0 C12.9730303,0 4,8.9233567 4,19.892089 C4,30.8624445 12.9730303,39.7858012 23.999184,39.7858012 C35.0286017,39.7858012 44,30.8624445 44,19.892089 C44,8.9233567 35.0286017,0 23.999184,0 L23.999184,0 Z M23.999184,38.1624873 C13.8722918,38.1624873 5.63205353,29.9663752 5.63205353,19.892089 C5.63205353,9.81780267 13.8722918,1.62331393 23.999184,1.62331393 C34.1277082,1.62331393 42.3679465,9.81780267 42.3679465,19.892089 C42.3679465,29.9663752 34.1277082,38.1624873 23.999184,38.1624873 Z M23.999184,10.8047775 C18.9610347,10.8047775 14.8629483,14.8809188 14.8629483,19.892089 C14.8629483,24.9032591 18.9610347,28.9810237 23.999184,28.9810237 C29.0389653,28.9810237 33.1386837,24.9032591 33.1386837,19.892089 C33.1386837,14.8809188 29.0389653,10.8047775 23.999184,10.8047775 Z M23.999184,27.3577097 C19.8602962,27.3577097 16.4950018,24.0104364 16.4950018,19.892089 C16.4950018,15.7753648 19.8602962,12.4280915 23.999184,12.4280915 C28.1380717,12.4280915 31.5066302,15.7753648 31.5066302,19.892089 C31.5066302,24.0104364 28.1380717,27.3577097 23.999184,27.3577097 Z M23.999184,15.4312223 C21.5266229,15.4312223 19.5143009,17.4327683 19.5143009,19.892089 C19.5143009,22.3530329 21.5266229,24.354579 23.999184,24.354579 C26.4733771,24.354579 28.4856991,22.3530329 28.4856991,19.892089 C28.4856991,17.4327683 26.4733771,15.4312223 23.999184,15.4312223 Z M23.999184,22.7296417 C22.4258844,22.7296417 21.1463544,21.4569636 21.1463544,19.892089 C21.1463544,18.3288376 22.4258844,17.0545362 23.999184,17.0545362 C25.5741156,17.0545362 26.8536456,18.3288376 26.8536456,19.892089 C26.8536456,21.4569636 25.5741156,22.7296417 23.999184,22.7296417 L23.999184,22.7296417 Z"></path>
                </g>
            </g>
        </g>
    </g>
</svg>

<svg width="40" height="40" viewBox="0 0 40 40" xmlns="http://www.w3.org/2000/svg"><title>vol</title><g fill="none" fill-rule="evenodd"><g transform="translate(-74 -38)" fill="#FFF"><g transform="translate(70 38)"><path d="M24 0C12.972 0 4 8.923 4 19.892c0 10.97 8.973 19.894 20 19.894 11.029 0 20-8.924 20-19.894C44 8.923 35.029 0 24 0zm0 38.162c-10.128 0-18.368-8.196-18.368-18.27S13.872 1.623 24 1.623c10.129 0 18.369 8.195 18.369 18.27 0 10.073-8.24 18.27-18.369 18.27zm0-27.357c-5.039 0-9.137 4.076-9.137 9.087s4.098 9.089 9.136 9.089c5.04 0 9.14-4.078 9.14-9.089s-4.1-9.087-9.14-9.087zm0 16.553c-4.14 0-7.505-3.348-7.505-7.466 0-4.117 3.365-7.464 7.504-7.464 4.14 0 7.508 3.347 7.508 7.464 0 4.118-3.369 7.466-7.508 7.466zm0-11.927c-2.473 0-4.486 2.002-4.486 4.461 0 2.461 2.013 4.463 4.485 4.463 2.474 0 4.487-2.002 4.487-4.463 0-2.46-2.013-4.46-4.487-4.46zm0 7.299a2.848 2.848 0 0 1-2.854-2.838A2.85 2.85 0 0 1 24 17.055a2.85 2.85 0 0 1 2.855 2.837 2.848 2.848 0 0 1-2.855 2.838z"/></g></g></g></svg>
